!!!COM: Anonymous
!!!COS: Gaspar van Weerbeke
!!!OPR: Missa [sine nomine]
!!!OTL: Sanctus
!!!OMV: 4
!!!AGN: Mass
!!!SCT: Ano0207d
!!!SCA: Ano0207d
!!!voices: 4
**kern	**text	**kern	**text	**kern	**text	**kern	**text
*part4	*part4	*part3	*part3	*part2	*part2	*part1	*part1
*staff4	*staff4	*staff3	*staff3	*staff2	*staff2	*staff1	*staff1
*I"Bassus	*	*I"Tenor	*	*I"Altus	*	*I"Superius	*
*I'B	*	*I'T	*	*I'A	*	*I'S	*
*clefF4	*	*clefGv2	*	*clefGv2	*	*clefG2	*
*k[b-]	*	*k[b-]	*	*k[b-]	*	*k[b-]	*
*M2/2	*	*M2/2	*	*M2/2	*	*M2/2	*
*met(C|)	*	*met(C|)	*	*met(C|)	*	*met(C|)	*
=1	=1	=1	=1	=1	=1	=1	=1
[1GG	San-	[1G	San-	[1d	San-	[1g	San-
=2	=2	=2	=2	=2	=2	=2	=2
1GG]	.	1G]	.	1d]	.	1g]	.
=3	=3	=3	=3	=3	=3	=3	=3
1D	.	1A	.	2.d	-ctus,	1f	.
.	.	.	.	4c	.	.	.
=4	=4	=4	=4	=4	=4	=4	=4
*	*	*	*	*lig	*	*	*
2G	.	2B-y	.	2B-y	.	2g	.
[2F	.	[2c	-ctus,	2A	.	[2a	.
*	*	*	*	*Xlig	*	*	*
=5	=5	=5	=5	=5	=5	=5	=5
4F]	.	2c]	.	1F	.	4a]	.
4E	.	.	.	.	.	4g	.
*	*	*	*edit	*	*	*	*
4D	.	[2d	San-	.	.	4f	.
4C	.	.	.	.	.	4e	.
=6	=6	=6	=6	=6	=6	=6	=6
*lig	*	*	*	*	*	*	*
2BB-y	-ctus,	4d]	.	2F	San-	2d	-ctus,
.	.	4c	.	.	.	.	.
*	*	*	*	*	*	*	*edit
2GG	.	2B-y	.	4G	.	2g	San-
.	.	.	.	[4d	.	.	.
*Xlig	*	*	*	*	*	*	*
!!LO:LB:g=original
=7	=7	=7	=7	=7	=7	=7	=7
*	*edit	*	*	*	*	*	*
2D	San-	4A	.	8dL]	.	4a	.
.	.	.	.	8eJ	.	.	.
.	.	2d	.	4f	.	2b-y	.
4GG	.	.	.	4g	.	.	.
*	*	*	*	*	*	*lig	*
4AA	.	4c	.	4e	.	[4a	.
=8	=8	=8	=8	=8	=8	=8	=8
4BB-y	.	4B-y	.	4d	.	4a]	.
4E-i	.	4G	.	4c	.	2g	.
*	*	*	*	*	*edit	*	*
2D	.	2A	.	2d	-ctus,	.	.
*	*	*	*	*	*	*Xlig	*
.	.	.	.	.	.	4f#i	.
=9	=9	=9	=9	=9	=9	=9	=9
2E-X	.	2G	-ctus,	4.B-y	San-	2g	-ctus,
.	.	.	.	8c	.	.	.
*	*	*	*Xedit	*	*	*	*
4D	.	4F	San-	4d	.	2b-y	San-
4E-y	.	[4B-y	.	4G	.	.	.
=10	=10	=10	=10	=10	=10	=10	=10
2C	.	4B-]	.	8AL	.	2cc	.
.	.	.	.	8G	.	.	.
.	.	4A	.	8F	.	.	.
.	.	.	.	8EJ	.	.	.
4BB-y	.	4B-y	.	4D	.	4dd	.
4C	.	4G	.	[4G	.	[4cc	.
=11	=11	=11	=11	=11	=11	=11	=11
2AA	.	2A	.	4G]	.	4cc]	.
.	.	.	.	4F#i	.	8b-yL	.
.	.	.	.	.	.	8aJ	.
*	*	*	*	*	*Xedit	*	*
2GG	-ctus,	2D	.	2G	-ctus,	2b-y	.
=12	=12	=12	=12	=12	=12	=12	=12
*	*Xedit	*	*	*	*	*	*
4.C	San-	4E	.	2r	.	2g	-ctus,
.	.	2G	.	.	.	.	.
8D	.	.	.	.	.	.	.
*	*	*	*	*	*edit	*	*Xedit
4E	.	.	.	4c	San-	4e	San-
4D	.	[4A	.	[4d	.	4f	.
!!LO:LB:g=original
=13	=13	=13	=13	=13	=13	=13	=13
4F	.	8AL]	.	4d]	.	4d	.
.	.	8FJ	.	.	.	.	.
*	*	*	*	*	*	*lig	*
2C	.	2G	.	2c	.	2e	.
4D	.	4D	.	[4A	.	[4d	.
=14	=14	=14	=14	=14	=14	=14	=14
*lig	*	*	*	*	*	*	*
2AA	-ctus,	2E	.	2A]	.	4d]	.
*	*	*	*	*	*	*Xlig	*
.	.	.	.	.	.	4c#i	.
2BB-y	.	2D	-ctus,	4F	-ctus,	2d	-ctus,
.	.	.	.	4f	San-	.	.
*Xlig	*	*	*	*	*	*	*
=15	=15	=15	=15	=15	=15	=15	=15
4r	.	1r	.	4e-j	.	1r	.
2F	San-	.	.	4d	.	.	.
.	.	.	.	8cL	.	.	.
.	.	.	.	8B-yJ	.	.	.
4E-j	.	.	.	4c	.	.	.
=16	=16	=16	=16	=16	=16	=16	=16
4D	.	1r	.	4B-y	.	1r	.
8CL	.	.	.	4f	.	.	.
8BB-yJ	.	.	.	.	.	.	.
4C	.	.	.	4e-j	.	.	.
*	*	*	*	*lig	*	*	*
4BB-y	.	.	.	[4d	.	.	.
=17	=17	=17	=17	=17	=17	=17	=17
2F	.	1r	.	4d]	.	1r	.
.	.	.	.	2c	.	.	.
*	*	*	*	*Xlig	*	*	*
4E-j	.	.	.	.	.	.	.
4D	.	.	.	[4B-y	.	.	.
=18	=18	=18	=18	=18	=18	=18	=18
2C	.	1r	.	4B-]	.	1r	.
.	.	.	.	4A	.	.	.
2BB-y	-ctus	.	.	2B-y	-ctus	.	.
=19	=19	=19	=19	=19	=19	=19	=19
1r	.	2r	.	1r	.	4.dd	San-
.	.	.	.	.	.	8cc	.
.	.	2d	San-	.	.	4b-y	.
.	.	.	.	.	.	8aL	.
.	.	.	.	.	.	8gJ	.
!!LO:LB:g=original
=20	=20	=20	=20	=20	=20	=20	=20
1r	.	4c	.	1r	.	4a	.
.	.	2B-y	.	.	.	4g	.
.	.	.	.	.	.	2dd	.
.	.	8AL	.	.	.	.	.
.	.	8GJ	.	.	.	.	.
=21	=21	=21	=21	=21	=21	=21	=21
1r	.	4A	.	1r	.	4cc	.
.	.	4G	.	.	.	4b-y	.
.	.	2d	.	.	.	8aL	.
.	.	.	.	.	.	8gJ	.
.	.	.	.	.	.	4f	.
=22	=22	=22	=22	=22	=22	=22	=22
1r	.	4c	.	1r	.	4e	.
.	.	4B-y	.	.	.	2g	.
.	.	2A	.	.	.	.	.
.	.	.	.	.	.	4f#i	.
=23	=23	=23	=23	=23	=23	=23	=23
1r	.	1G	-ctus	1r	.	1g	-ctus
=24	=24	=24	=24	=24	=24	=24	=24
*	*	*	*	*	*Xedit	*	*
2.F	Do-	2.c	Do-	2.f	Do-	2.a	Do-
4F	-mi-	4c	-mi-	4f	-mi-	4a	-mi-
=25	=25	=25	=25	=25	=25	=25	=25
2F	-nus	2c	-nus	4.c	-nus	2a	-nus
.	.	.	.	8d	.	.	.
*	*	*	*	*	*	*lig	*
2E	De-	[2c	De-	8eL	.	2g	De-
.	.	.	.	8fJ	.	.	.
.	.	.	.	[4g	.	.	.
=26	=26	=26	=26	=26	=26	=26	=26
4F	.	2c]	.	8gL]	.	2a	.
.	.	.	.	8fJ	.	.	.
4A	.	.	.	2f	.	.	.
*	*	*	*	*	*	*Xlig	*
2G	.	4d	.	.	.	4.b-y	.
.	.	4B-y	.	4e	.	.	.
.	.	.	.	.	.	8g	.
!!LO:PB:g=original
=27	=27	=27	=27	=27	=27	=27	=27
4F	.	2c	.	4.f	De-	2a	.
2A	.	.	.	.	.	.	.
.	.	.	.	8e	.	.	.
.	.	4A	.	4c	.	4f	.
4G	.	4B-y	.	4B-y	.	4g	.
=28	=28	=28	=28	=28	=28	=28	=28
2F	.	4c	.	4A	.	4a	.
.	.	4A	.	2.c	.	2f	.
2C	.	2G	.	.	.	.	.
.	.	.	.	.	.	4e	.
=29	=29	=29	=29	=29	=29	=29	=29
1D	.	2F	-us	2A	-us	1f	-us
*	*	*	*	*	*edit	*	*
.	.	2r	.	2F	Sa-	.	.
=30	=30	=30	=30	=30	=30	=30	=30
*	*	*	*	*lig	*	*	*
2BB-y	-us	1r	.	2B-y	.	1r	.
2r	.	.	.	2c	.	.	.
*	*	*	*	*Xlig	*	*	*
=31	=31	=31	=31	=31	=31	=31	=31
*	*	*	*	*	*	*lig	*
1r	.	1r	.	2.d	.	2f	Sa-
.	.	.	.	.	.	2b-y	.
.	.	.	.	4c	.	.	.
*	*	*	*	*	*	*Xlig	*
=32	=32	=32	=32	=32	=32	=32	=32
1r	.	1r	.	2A	.	2cc	.
.	.	.	.	4G	.	[2dd	.
.	.	.	.	[4B-y	.	.	.
=33	=33	=33	=33	=33	=33	=33	=33
1r	.	1r	.	4B-]	.	4dd]	.
.	.	.	.	8AL	.	8ccL	.
.	.	.	.	8GJ	.	8b-yJ	.
.	.	.	.	8FL	.	2a	.
.	.	.	.	8G	.	.	.
.	.	.	.	8A	.	.	.
.	.	.	.	8B-yJ	.	.	.
!!LO:LB:g=original
=34	=34	=34	=34	=34	=34	=34	=34
2r	.	2r	.	4c	-ba-	4g	.
.	.	.	.	4B-y	.	2b-y	.
2GG	Sa-	2G	Sa-	[2d	-oth,	.	.
.	.	.	.	.	.	8aL	.
.	.	.	.	.	.	8gJ	.
=35	=35	=35	=35	=35	=35	=35	=35
4.D	.	4.A	.	2d]	.	8fL	.
.	.	.	.	.	.	8g	.
.	.	.	.	.	.	8a	.
8C	.	8F	.	.	.	8b-yJ	.
*	*	*	*	*	*Xedit	*	*
4AA	.	2A	.	4.c	Sa-	2cc	.
4A	.	.	.	.	.	.	.
.	.	.	.	8d	.	.	.
=36	=36	=36	=36	=36	=36	=36	=36
4G	.	4B-y	.	4e	.	4b-y	.
4.F	.	2c	.	2f	.	4.a	.
8EL	.	.	.	.	.	8g	.
8D	.	[4d	.	[4f	-ba-	[4b-y	.
8CJ	.	.	.	.	.	.	.
=37	=37	=37	=37	=37	=37	=37	=37
4.BB-y	.	4d]	.	8fL]	.	4b-]	.
.	.	.	.	8eJ	.	.	.
.	.	4B-y	.	4.d	.	2g	-ba-
8C	.	.	.	.	.	.	.
2D	-ba-	2A	-ba-	.	.	.	.
.	.	.	.	8cL	.	.	.
.	.	.	.	8B-y	.	4f#i	.
.	.	.	.	8AJ	.	.	.
=38	=38	=38	=38	=38	=38	=38	=38
[1GGl	-oth.	[1Gl	-oth.	2.B-y	.	[1gl	-oth.
.	.	.	.	4c	.	.	.
=39	=39	=39	=39	=39	=39	=39	=39
1GG]	.	1G]	.	1dl	-oth.	1g]	.
!!LO:LB:g=original
=40||	=40||	=40||	=40||	=40||	=40||	=40||	=40||
*M2/2	*	*M2/2	*	*M2/2	*	*M2/2	*
*met(C|)	*	*met(C|)	*	*met(C|)	*	*met(C|)	*
2.G	Ple-	[1B-y	Ple-	1r	.	1r	.
4E-i	.	.	.	.	.	.	.
=41	=41	=41	=41	=41	=41	=41	=41
4D	.	1B-]	.	1r	.	1r	.
2G	-ni	.	.	.	.	.	.
[4GG	sunt	.	.	.	.	.	.
=42	=42	=42	=42	=42	=42	=42	=42
8GGL]	.	1B-y	-ni	1r	.	1r	.
8AA	.	.	.	.	.	.	.
8BB-y	.	.	.	.	.	.	.
8CJ	.	.	.	.	.	.	.
4D	.	.	.	.	.	.	.
4BB-y	.	.	.	.	.	.	.
=43	=43	=43	=43	=43	=43	=43	=43
4.E-i	ce-	2.B-y	sunt	1r	.	1r	.
8D	.	.	.	.	.	.	.
8BB-yL	.	.	.	.	.	.	.
8C	.	.	.	.	.	.	.
8D	.	8AL	.	.	.	.	.
8E-jJ	.	8GJ	.	.	.	.	.
=44	=44	=44	=44	=44	=44	=44	=44
4F	.	4A	.	1r	.	1r	.
2G	.	4G	.	.	.	.	.
.	.	2A	ce-	.	.	.	.
4F#i	.	.	.	.	.	.	.
=45	=45	=45	=45	=45	=45	=45	=45
2G	-li,	1G	-li,	1d	Ple-	2.b-y	Ple-
2r	.	.	.	.	.	.	.
.	.	.	.	.	.	4a	.
=46	=46	=46	=46	=46	=46	=46	=46
*lig	*	*	*	*	*	*	*
*	*edit	*	*edit	*	*	*	*
2GG	ple-	2.B-y	ple-	1d	-ni	2g	-ni
2D	.	.	.	.	.	2f	sunt
.	.	4A	.	.	.	.	.
*Xlig	*	*	*	*	*	*	*
!!LO:LB:g=original
=47	=47	=47	=47	=47	=47	=47	=47
2E-i	-ni	2G	-ni	4.B-y	sunt	2g	ce-
.	.	.	.	8c	.	.	.
4r	.	2F	sunt	8dL	.	4d	-li
.	.	.	.	8e-jJ	.	.	.
4D	sunt	.	.	4f	.	4a	et
=48	=48	=48	=48	=48	=48	=48	=48
4BB-y	.	2G	ce-	4d	ce-	2b-y	ter-
4GG	.	.	.	4g	.	.	.
2D	ce-	4D	-li	4.f	-li	4a	.
*	*	*	*Xedit	*	*	*	*
.	.	4A	et	.	.	4f	.
.	.	.	.	8e	.	.	.
=49	=49	=49	=49	=49	=49	=49	=49
2GG	-li	2B-y	ter-	8dL	.	2g	.
.	.	.	.	8cJ	.	.	.
.	.	.	.	4B-y	.	.	.
4r	.	4A	.	4c	et	4f	.
*	*Xedit	*	*	*	*	*	*
[4F	et	4F	.	4f	.	[4cc	.
=50	=50	=50	=50	=50	=50	=50	=50
4F]	.	2G	.	4d	.	8ccL]	.
.	.	.	.	.	.	8aJ	.
4E	.	.	.	4e	.	4b-y	.
4F	.	4F	.	4c	.	4a	.
*	*	*	*	*	*	*col	*
4BB-y	.	4B-y	.	[4f	ter-	[4dd	.
=51	=51	=51	=51	=51	=51	=51	=51
4F	ter-	4A	.	4f]	.	8ddL]	.
.	.	.	.	.	.	8ccJ	.
*	*	*	*	*	*	*Xcol	*
4G	.	4B-y	.	4e	.	2b-y	.
2F	-ra	2c	.	2f	-ra	.	.
.	.	.	.	.	.	4a	.
=52	=52	=52	=52	=52	=52	=52	=52
2r	.	2B-y	-ra	4.f	glo-	1b-y	-ra
.	.	.	.	8f	-ri-	.	.
4.G	glo-	2r	.	2d	-a	.	.
8G	-ri-	.	.	.	.	.	.
!!LO:PB:g=original
=53	=53	=53	=53	=53	=53	=53	=53
2F	-a	4.c	glo-	2f	tu-	2r	.
.	.	8c	-ri-	.	.	.	.
2G	tu-	2B-y	-a	2d	-a.	4.b-y	glo-
.	.	.	.	.	.	8b-y	-ri-
=54	=54	=54	=54	=54	=54	=54	=54
2F	-a.	2c	tu-	2r	.	2a	-a
2r	.	2B-y	-a.	2d	O-	2b-y	tu-
=55	=55	=55	=55	=55	=55	=55	=55
2D	O-	1r	.	4.f	.	2a	-a.
.	.	.	.	8d	.	.	.
*lig	*	*	*	*	*	*	*
2G	-san-	.	.	8eL	.	2r	.
.	.	.	.	8dJ	.	.	.
.	.	.	.	[4g	.	.	.
=56	=56	=56	=56	=56	=56	=56	=56
*	*	*	*	*	*	*	*edit
2A	.	1r	.	4g]	.	2cc	O-
.	.	.	.	4f#i	.	.	.
*Xlig	*	*	*	*	*	*	*
2G	-na,	.	.	4g	-san-	4.b-y	.
.	.	.	.	[4d	.	.	.
.	.	.	.	.	.	8g	.
=57	=57	=57	=57	=57	=57	=57	=57
1r	.	2r	.	4d]	.	4a	.
.	.	.	.	4B-y	.	2g	-san-
.	.	2c	O-	2A	-na,	.	.
.	.	.	.	.	.	4f#i	.
=58	=58	=58	=58	=58	=58	=58	=58
*	*edit	*	*	*	*	*	*
4G	o-	4.B-y	.	2r	.	2g	-na,
2D	.	.	.	.	.	.	.
.	.	8G	.	.	.	.	.
.	.	4A	.	4r	.	2r	.
*	*	*	*	*	*edit	*	*
4BB-y	.	[4G	-san-	4d	o-	.	.
!!LO:LB:g=original
=59	=59	=59	=59	=59	=59	=59	=59
4AA	-san-	4G]	.	4c	.	1r	.
4D	.	4F#i	.	2d	.	.	.
2E-i	.	2G	.	.	.	.	.
.	.	.	.	4c	.	.	.
=60	=60	=60	=60	=60	=60	=60	=60
1D	-na,	1A	-na,	1d	-san-	2r	.
*	*	*	*	*	*	*	*Xedit
.	.	.	.	.	.	2dd	o-
=61	=61	=61	=61	=61	=61	=61	=61
*	*	*	*edit	*	*	*	*
1r	.	[1d	o-	4.f	.	4dd	-san-
.	.	.	.	.	.	2dd	-na,
.	.	.	.	8g	.	.	.
.	.	.	.	2a	-na,	.	.
.	.	.	.	.	.	8ccL	.
.	.	.	.	.	.	8b-yJ	.
=62	=62	=62	=62	=62	=62	=62	=62
2D	o-	1d]	.	2r	.	2a	.
4D	-san-	.	.	2a	o-	2r	.
[4D	-na,	.	.	.	.	.	.
=63	=63	=63	=63	=63	=63	=63	=63
4D]	.	2d	-san-	4a	-san-	2r	.
8CL	.	.	.	2a	-na,	.	.
8BB-yJ	.	.	.	.	.	.	.
*	*	*	*	*	*	*	*edit
2AA	.	[2c	-na	.	.	2cc	o-
.	.	.	.	8gL	.	.	.
.	.	.	.	8fJ	.	.	.
=64	=64	=64	=64	=64	=64	=64	=64
2r	.	1c_	.	2e	.	4cc	-san-
.	.	.	.	.	.	2cc	-na,
2C	o-	.	.	2r	.	.	.
.	.	.	.	.	.	8b-yL	.
.	.	.	.	.	.	8aJ	.
!!LO:LB:g=original
=65	=65	=65	=65	=65	=65	=65	=65
4C	-san-	2c]	.	2g	o-	2g	.
2C	-na,	.	.	.	.	.	.
*	*	*	*Xedit	*	*	*	*
.	.	2c	in	4g	-san-	2r	.
8BB-yL	.	.	.	[4g	-na,	.	.
8AAJ	.	.	.	.	.	.	.
=66	=66	=66	=66	=66	=66	=66	=66
2GG	.	[1B-y	ex-	4g]	.	2b-y	o-
.	.	.	.	8fL	.	.	.
.	.	.	.	8eJ	.	.	.
2r	.	.	.	2d	.	4b-y	-san-
.	.	.	.	.	.	[4b-y	-na,
=67	=67	=67	=67	=67	=67	=67	=67
2BB-y	o-	1B-]	.	2r	.	4b-]	.
.	.	.	.	.	.	8aL	.
.	.	.	.	.	.	8gJ	.
4BB-y	-san-	.	.	2f	o-	2f	.
[4BB-y	-na,	.	.	.	.	.	.
=68	=68	=68	=68	=68	=68	=68	=68
4BB-]	.	2B-y	-cel-	4f	-san-	2r	.
8AAL	.	.	.	2f	-na	.	.
8GGJ	.	.	.	.	.	.	.
*	*	*	*edit	*	*	*	*Xedit
2FF	.	[2A	-sis,	.	.	4.f	in
.	.	.	.	8eL	.	.	.
.	.	.	.	8dJ	.	8g	.
=69	=69	=69	=69	=69	=69	=69	=69
4r	.	1A]	.	2c	.	8aL	.
.	.	.	.	.	.	8b-yJ	.
*	*Xedit	*	*	*	*	*	*
4.AA	in	.	.	.	.	4.cc	ex-
.	.	.	.	4r	.	.	.
8BB-y	.	.	.	.	.	8b-y	.
*	*	*	*	*	*Xedit	*	*
4C	.	.	.	4e	in	[4a	.
=70	=70	=70	=70	=70	=70	=70	=70
4D	ex-	4F	in	4d	ex-	4a]	.
4E-i	.	4G	.	4c	.	4g	.
2D	.	2A	.	2d	.	4.f	-cel-
.	.	.	.	.	.	8e	.
!!LO:LB:g=original
=71	=71	=71	=71	=71	=71	=71	=71
4.E-i	-cel-	4.G	ex-	4.B-y	-cel-	4.g	.
8D	.	8A	.	8c	.	8f	.
*	*	*	*	*	*edit	*	*
4BB-y	.	2B-y	.	2d	-sis,	4d	.
[4D	.	.	.	.	.	[4f	.
=72	=72	=72	=72	=72	=72	=72	=72
4D]	.	4.A	-cel-	2r	.	4f]	.
4.C	.	.	.	.	.	4.e	.
.	.	8B-y	.	.	.	.	.
.	.	2c	.	[2G	o-	.	.
8D	.	.	.	.	.	8f	.
[4E-i	.	.	.	.	.	[4g	.
=73	=73	=73	=73	=73	=73	=73	=73
4E-]	.	4.B-y	.	4G]	.	4g]	.
2D	.	.	.	2d	-san-	2f	.
.	.	8c	.	.	.	.	.
.	.	2d	.	.	.	.	.
[4G	.	.	.	4B-y	.	[4b-y	.
=74	=74	=74	=74	=74	=74	=74	=74
*	*	*lig	*	*	*	*	*
8GL]	.	2B-y	.	2G	-na	8b-L]	.
8FJ	.	.	.	.	.	8aJ	.
4.E-i	.	.	.	.	.	4.g	.
.	.	2c	.	4g	in	.	.
8C	.	.	.	.	.	8e	.
[4F	.	.	.	4f	ex-	[4a	.
=75	=75	=75	=75	=75	=75	=75	=75
8FL]	.	1A	.	4c	.	8aL]	.
8E-i	.	.	.	.	.	8g	.
8D	.	.	.	4.f	-cel-	8f#i	.
8CJ	.	.	.	.	.	8eJ	.
2D	.	.	.	.	.	2f#i	.
.	.	.	.	8e	.	.	.
.	.	.	.	4d	.	.	.
*	*	*Xlig	*	*	*	*	*
=76	=76	=76	=76	=76	=76	=76	=76
*	*	*	*Xedit	*	*Xedit	*	*
1GGl	-sis.	1Gl	-sis.	1dl	-sis.	1gl	-sis.
!!LO:PB:g=original
=77||	=77||	=77||	=77||	=77||	=77||	=77||	=77||
*M2/2	*	*M2/2	*	*M2/2	*	*M2/2	*
*met(C|)	*	*met(C|)	*	*met(C|)	*	*met(C|)	*
1r	.	2G	Be-	1r	.	1r	.
.	.	4F	-ne-	.	.	.	.
.	.	[4G	-di-	.	.	.	.
=78	=78	=78	=78	=78	=78	=78	=78
1r	.	4G]	.	1r	.	2g	Be-
.	.	8FL	.	.	.	.	.
.	.	8EJ	.	.	.	.	.
.	.	4D	.	.	.	4f	-ne-
.	.	[4B-y	.	.	.	[4g	-di-
=79	=79	=79	=79	=79	=79	=79	=79
1r	.	4B-]	.	1r	.	4g]	.
.	.	8AL	.	.	.	8fL	.
.	.	8GJ	.	.	.	8eJ	.
.	.	4F	.	.	.	4d	.
.	.	[4G	.	.	.	[4b-y	.
=80	=80	=80	=80	=80	=80	=80	=80
1r	.	8GL]	.	1r	.	4b-]	.
.	.	8A	.	.	.	.	.
.	.	8B-y	.	.	.	8aL	.
.	.	8cJ	.	.	.	8gJ	.
.	.	4d	.	.	.	4f	.
.	.	[4e-X	.	.	.	[4g	.
=81	=81	=81	=81	=81	=81	=81	=81
1r	.	4e-]	.	1r	.	8gL]	.
.	.	.	.	.	.	8a	.
.	.	2d	.	.	.	8b-y	.
.	.	.	.	.	.	8ccJ	.
.	.	.	.	.	.	2dd	.
.	.	8cL	.	.	.	.	.
.	.	8B-yJ	.	.	.	.	.
!!LO:LB:g=original
=82	=82	=82	=82	=82	=82	=82	=82
1r	.	2A	.	1r	.	4cc	.
.	.	.	.	.	.	2a	.
.	.	8FL	.	.	.	.	.
.	.	8G	.	.	.	.	.
.	.	8A	.	.	.	8gL	.
.	.	8B-yJ	.	.	.	8fJ	.
=83	=83	=83	=83	=83	=83	=83	=83
1r	.	4c	.	1r	.	4e	.
*	*	*	*	*	*	*col	*
.	.	4.d	.	.	.	4.f	.
.	.	8c	.	.	.	8g	.
*	*	*	*	*	*	*Xcol	*
.	.	[4d	.	.	.	4b-y	.
=84	=84	=84	=84	=84	=84	=84	=84
1r	.	4d]	.	1r	.	4a	.
.	.	4B-y	.	.	.	2g	.
.	.	2A	.	.	.	.	.
.	.	.	.	.	.	4f#i	.
=85	=85	=85	=85	=85	=85	=85	=85
2r	.	2G	-ctus	4r	.	2g	-ctus
.	.	.	.	4G	Qui	.	.
4r	.	2r	.	4.G	ve-	2r	.
4GG	Qui	.	.	.	.	.	.
.	.	.	.	8A	.	.	.
=86	=86	=86	=86	=86	=86	=86	=86
4.GG	ve-	1r	.	8B-yL	.	1r	.
.	.	.	.	8cJ	.	.	.
.	.	.	.	4.d	.	.	.
8AA	.	.	.	.	.	.	.
8BB-yL	.	.	.	.	.	.	.
8CJ	.	.	.	8e	.	.	.
[4D	.	.	.	[4f	.	.	.
=87	=87	=87	=87	=87	=87	=87	=87
8DL]	.	1r	.	4f]	.	1r	.
8EJ	.	.	.	.	.	.	.
2F	.	.	.	8eL	.	.	.
.	.	.	.	8dJ	.	.	.
.	.	.	.	4.c	.	.	.
8EL	.	.	.	.	.	.	.
8DJ	.	.	.	8d	.	.	.
!!LO:LB:g=original
=88	=88	=88	=88	=88	=88	=88	=88
4.C	.	1r	.	8eL	.	1r	.
.	.	.	.	8fJ	.	.	.
.	.	.	.	4.g	.	.	.
8D	.	.	.	.	.	.	.
8EL	.	.	.	.	.	.	.
8FJ	.	.	.	8fL	.	.	.
[4G	.	.	.	8e	.	.	.
.	.	.	.	8dJ	.	.	.
=89	=89	=89	=89	=89	=89	=89	=89
4G]	.	1r	.	4e	.	1r	.
4F	.	.	.	2d	.	.	.
2E	.	.	.	.	.	.	.
.	.	.	.	4c#i	.	.	.
=90	=90	=90	=90	=90	=90	=90	=90
2D	-nit	4r	.	2d	-nit	2r	.
.	.	4A	in	.	.	.	.
2r	.	4c	no-	2r	.	4r	.
.	.	4c	-mi-	.	.	4e	in
=91	=91	=91	=91	=91	=91	=91	=91
1r	.	4c	-ne	1r	.	4g	no-
.	.	8B-yL	.	.	.	4g	-mi-
.	.	8AJ	.	.	.	.	.
.	.	4.G	.	.	.	4g	-ne
.	.	.	.	.	.	8fL	.
.	.	8A	.	.	.	8eJ	.
=92	=92	=92	=92	=92	=92	=92	=92
1r	.	4.B-y	.	1r	.	8dL	.
.	.	.	.	.	.	8e	.
.	.	.	.	.	.	8f	.
.	.	8A	.	.	.	8gJ	.
.	.	4F	.	.	.	8aL	.
.	.	.	.	.	.	8b-yJ	.
.	.	4A	.	.	.	[4cc	.
!!LO:LB:g=original
=93	=93	=93	=93	=93	=93	=93	=93
*	*	*	*edit	*	*	*	*
1r	.	4B-y	Do-	1r	.	8ccL]	.
.	.	.	.	.	.	8b-yJ	.
.	.	4d	.	.	.	2b-y	Do-
.	.	2c	-mi-	.	.	.	.
.	.	.	.	.	.	4a	-mi-
=94	=94	=94	=94	=94	=94	=94	=94
4r	.	2B-y	-ni,	4r	.	2b-y	-ni,
2BB-y	Do-	.	.	2d	Do-	.	.
.	.	2r	.	.	.	2r	.
4BB-y	-mi-	.	.	4d	-mi-	.	.
=95	=95	=95	=95	=95	=95	=95	=95
8BB-yL	-ni,	1r	.	4d	-ni,	1r	.
8C	.	.	.	.	.	.	.
8D	.	.	.	8cL	.	.	.
8E-jJ	.	.	.	8B-yJ	.	.	.
4F	.	.	.	8AL	.	.	.
.	.	.	.	8G	.	.	.
*	*	*	*	*	*edit	*	*
4G	.	.	.	8g	Do-	.	.
.	.	.	.	8f#jJ	.	.	.
=96	=96	=96	=96	=96	=96	=96	=96
4A	.	1r	.	8f#jL	.	1r	.
.	.	.	.	8eJ	.	.	.
*	*edit	*	*	*	*	*	*
2B-y	Do-	.	.	2g	.	.	.
8AL	.	.	.	[4d	.	.	.
8GJ	.	.	.	.	.	.	.
=97	=97	=97	=97	=97	=97	=97	=97
4F	.	1r	.	4d]	.	2r	.
2G	-mi-	.	.	8cL	.	.	.
.	.	.	.	8B-yJ	.	.	.
*	*	*	*	*	*	*	*edit
.	.	.	.	2A	-mi-	2cc	in
4F#i	.	.	.	.	.	.	.
=98	=98	=98	=98	=98	=98	=98	=98
2G	-ni,	1r	.	2G	-ni,	2b-y	no-
2r	.	.	.	4E	.	4g	.
.	.	.	.	4F	.	[4a	.
!!LO:PB:g=original
=99	=99	=99	=99	=99	=99	=99	=99
1r	.	4r	.	2D	.	4a]	.
*	*	*	*Xedit	*	*	*	*
.	.	2d	Do-	.	.	4f	-mi-
.	.	.	.	2A	in	2e	-ne
.	.	4c	.	.	.	.	.
=100	=100	=100	=100	=100	=100	=100	=100
2r	.	4A	.	4c	no-	4r	.
.	.	2B-y	.	4B-y	-mi-	2dd	Do-
2B-y	Do-	.	.	2G	-ne	.	.
.	.	4G	.	.	.	8ccL	.
.	.	.	.	.	.	8b-yJ	.
=101	=101	=101	=101	=101	=101	=101	=101
2A	.	4F	.	4r	.	4cc	.
.	.	2c	.	4e	Do-	2a	.
4F	.	.	.	4f	.	.	.
[4G	.	4B-y	.	4d	.	[4b-y	.
=102	=102	=102	=102	=102	=102	=102	=102
*	*	*lig	*	*	*	*	*
4G]	.	2G	-mi-	4B-y	.	8b-L]	.
.	.	.	.	.	.	8aJ	.
4E	.	.	.	4c	-mi-	2g	.
2D	-mi-	2A	.	2d	-ni.	.	.
.	.	.	.	.	.	4f#i	-mi-
*	*	*Xlig	*	*	*	*	*
=103	=103	=103	=103	=103	=103	=103	=103
*	*	*	*	*	*Xedit	*	*
2E-X	-ni.	2G	-ni.	4.B-y	O-	2g	-ni.
.	.	.	.	8c	.	.	.
*	*Xedit	*	*	*	*	*	*
2D	O-	4r	.	8dL	.	2r	.
.	.	.	.	8e-iJ	.	.	.
.	.	[4F	O-	4f	.	.	.
=104	=104	=104	=104	=104	=104	=104	=104
4BB-y	.	4F]	.	4d	.	1r	.
2C	-san-	4E-i	.	2e-X	.	.	.
.	.	2C	-san-	.	.	.	.
4AA	.	.	.	4c	.	.	.
!!LO:LB:g=original
=105	=105	=105	=105	=105	=105	=105	=105
*	*	*	*	*	*	*	*Xedit
2GG	-na,	4D	.	4.B-y	.	2dd	O-
.	.	2G	.	.	.	.	.
.	.	.	.	8c	.	.	.
2r	.	.	.	4d	.	4b-y	.
.	.	[4C	.	[4e-i	.	[4cc	-san-
=106	=106	=106	=106	=106	=106	=106	=106
1r	.	8CL]	.	4e-]	.	4cc]	.
.	.	8DJ	.	.	.	.	.
.	.	4F	.	2d	-san-	4a	.
*	*	*	*	*	*	*lig	*
.	.	2E-i	.	.	.	2g	-na,
.	.	.	.	4c	.	.	.
=107	=107	=107	=107	=107	=107	=107	=107
*	*edit	*	*	*	*	*	*
2A	o-	2D	-na,	4d	-na,	2f	.
.	.	.	.	4f	.	.	.
*	*	*	*	*	*	*Xlig	*
*	*	*	*	*	*edit	*	*
2G	.	2r	.	8eL	o-	2r	.
.	.	.	.	8d	.	.	.
.	.	.	.	8c	.	.	.
.	.	.	.	8B-yJ	.	.	.
=108	=108	=108	=108	=108	=108	=108	=108
4E	.	1r	.	8cL	.	1r	.
.	.	.	.	8B-y	.	.	.
2F	-san-	.	.	8A	.	.	.
.	.	.	.	8GJ	.	.	.
.	.	.	.	4F	.	.	.
4D	.	.	.	[4B-y	-san-	.	.
=109	=109	=109	=109	=109	=109	=109	=109
2C	-na,	2r	.	4B-]	.	2r	.
.	.	.	.	4A	.	.	.
*	*	*	*	*lig	*	*	*
*	*	*	*edit	*	*	*	*edit
2r	.	2G	o-	2B-y	-na,	2b-y	o-
=110	=110	=110	=110	=110	=110	=110	=110
1r	.	2F	.	2c	.	2a	.
*	*	*	*	*Xlig	*	*	*
.	.	4D	.	4d	o-	4f	.
.	.	[4E-i	.	4B-y	.	[4g	-san-
!!LO:LB:g=original
=111	=111	=111	=111	=111	=111	=111	=111
2r	.	4E-]	.	4.G	-san-	4g]	.
.	.	8DL	.	.	.	8fL	.
.	.	8CJ	.	8A	.	8e-iJ	.
2G	o-	4BB-y	.	8B-yL	.	4.d	.
.	.	.	.	8c	.	.	.
.	.	[4B-y	-san-	8d	.	.	.
.	.	.	.	8eJ	.	8B-y	.
=112	=112	=112	=112	=112	=112	=112	=112
2F	.	4B-]	.	2f	-na	2c	-na
.	.	4A	.	.	.	.	.
4D	.	[2B-y	-na	2r	.	4r	.
*	*	*	*	*	*	*	*Xedit
[4E-X	-san-	.	.	.	.	[4g	in
=113	=113	=113	=113	=113	=113	=113	=113
4E-]	.	1B-_	.	2r	.	4g]	.
4C	.	.	.	.	.	8fL	.
.	.	.	.	.	.	8e-iJ	.
*	*	*	*	*	*Xedit	*	*
2BB-y	-na	.	.	2f	in	4d	.
.	.	.	.	.	.	4f	ex-
=114	=114	=114	=114	=114	=114	=114	=114
1r	.	2B-]	.	2d	ex-	4g	.
.	.	.	.	.	.	4.b-y	-cel-
*	*	*	*Xedit	*	*	*	*
.	.	4.G	in	4.B-y	-cel-	.	.
.	.	.	.	.	.	8a	.
.	.	.	.	.	.	[4g	.
.	.	8A	.	8c	.	.	.
=115	=115	=115	=115	=115	=115	=115	=115
4r	.	4B-y	.	4d	.	8gL]	.
.	.	.	.	.	.	8fJ	.
*	*Xedit	*	*	*	*	*	*
2A	in	4c	.	2c	.	4f	.
.	.	4A	.	.	.	4e	.
*	*	*	*	*	*	*lig	*
4G	ex-	4B-y	.	4d	.	[4g	.
=116	=116	=116	=116	=116	=116	=116	=116
4E	-cel-	4G	ex-	4e	.	4g]	.
*	*	*	*	*	*	*col	*
2F	.	4c	.	4c	.	4.a	.
*	*	*	*	*	*	*Xlig	*
*	*	*lig	*	*	*	*	*
.	.	2F	-cel-	4.A	.	.	.
.	.	.	.	.	.	8g	.
*	*	*	*	*	*	*Xcol	*
4D	.	.	.	.	.	[4f	.
.	.	.	.	8B-y	.	.	.
!!LO:LB:g=original
=117	=117	=117	=117	=117	=117	=117	=117
*	*edit	*	*	*	*edit	*	*
2C	-sis,	2G	.	2c	-sis,	4f]	.
.	.	.	.	.	.	4e	.
*	*	*Xlig	*	*	*	*	*
*	*	*	*edit	*	*	*	*edit
2r	.	4.F	-sis,	4r	.	2f	-sis,
.	.	.	.	[4f	in	.	.
.	.	8G	.	.	.	.	.
=118	=118	=118	=118	=118	=118	=118	=118
4r	.	2A	.	8fL]	.	1r	.
.	.	.	.	8eJ	.	.	.
2F	in	.	.	4c	.	.	.
.	.	4F	in	4d	.	.	.
4E	ex-	[4G	.	[4e	ex-	.	.
=119	=119	=119	=119	=119	=119	=119	=119
4C	-cel-	4G]	.	4e]	.	1r	.
2D	.	4D	.	2f	.	.	.
.	.	4F	.	.	.	.	.
4BB-y	.	4G	.	[4d	-cel-	.	.
=120	=120	=120	=120	=120	=120	=120	=120
2AA	-sis,	2E	ex-	4d]	.	1r	.
.	.	.	.	4c#i	.	.	.
2r	.	4.D	-cel-	2d	-sis,	.	.
.	.	8E	.	.	.	.	.
=121	=121	=121	=121	=121	=121	=121	=121
4r	.	4F	.	2r	.	4.d	in
2B-y	in	4BB-y	-sis,	.	.	.	.
.	.	.	.	.	.	8e	.
.	.	4B-y	in	4d	in	8fL	.
.	.	.	.	.	.	8gJ	.
4A	ex-	[4c	.	4e	.	[4a	.
=122	=122	=122	=122	=122	=122	=122	=122
4F	-cel-	4c]	.	4f	ex-	4a]	.
2G	.	4G	ex-	2d	-cel-	4.b-y	ex-
.	.	4B-y	.	.	.	.	.
.	.	.	.	.	.	8a	.
4E-j	.	4c	.	4c	.	2g	-cel-
2D	.	2A	-cel-	2d	-sis,	.	.
.	.	.	.	.	.	4f#i	.
!!LO:PB:g=original
=123	=123	=123	=123	=123	=123	=123	=123
*M3/2	*	*M3/2	*	*M3/2	*	*M3/2	*
*met(O)	*	*met(O)	*	*met(O)	*	*met(O)	*
!!LO:TX:a:t=[C |3]
!!LO:TX:t=[whole]=[whole-dot]
*col	*	*lig	*	*	*	*	*
*	*	*col	*	*col	*	*	*
[1.GG	-sis,	1G	-sis,	[1.d	o-	1.g	-sis,
.	.	[2B-y	.	.	.	.	.
*	*	*Xlig	*	*	*	*	*
=124	=124	=124	=124	=124	=124	=124	=124
2GG]	.	2B-]	.	2d]	.	1.r	.
1D	o-	1A	o-	1f	-san-	.	.
*Xcol	*	*Xcol	*	*Xcol	*	*	*
=125	=125	=125	=125	=125	=125	=125	=125
*	*	*	*	*	*	*col	*
4C	-san-	1c	-san-	1e	-na	1g	o-
4D	.	.	.	.	.	.	.
4E	.	.	.	.	.	.	.
4F	.	.	.	.	.	.	.
[2G	.	2B-y	-na	2d	in	[2b-y	-san-
=126	=126	=126	=126	=126	=126	=126	=126
*	*	*lig	*	*	*	*	*
*	*	*col	*	*	*	*	*
2G]	.	1d	in	2g	.	2b-]	.
2D	-na	.	.	1f	ex-	1a	-na
*	*	*	*	*	*	*Xcol	*
2F	in	[2c	.	.	.	.	.
=127	=127	=127	=127	=127	=127	=127	=127
2A	.	2c]	.	2e	-cel-	1cc	in
1G	ex-	1d	.	1g	.	.	.
.	.	.	.	.	.	2b-y	ex-
*	*	*Xlig	*	*	*	*	*
!!LO:LB:g=original
=128	=128	=128	=128	=128	=128	=128	=128
*	*	*lig	*	*	*	*	*
2A	-cel-	1c	ex-	2e	.	2.a	-cel-
4F	.	.	.	1f	-sis,	.	.
4E	.	.	.	.	.	4g	.
4D	.	[2d	.	.	.	4f	.
4C	.	.	.	.	.	4e	.
=129	=129	=129	=129	=129	=129	=129	=129
*	*	*	*	*lig	*	*	*
*	*	*	*	*col	*	*	*
2BB-y	.	2d]	.	2f	in	2d	.
2.C	.	1c	.	2e	.	2.e	.
*	*	*	*	*Xlig	*	*	*
*	*	*	*	*lig	*	*	*
.	.	.	.	[2c	ex-	.	.
4D	.	.	.	.	.	4f	.
*	*	*Xlig	*	*	*	*	*
=130	=130	=130	=130	=130	=130	=130	=130
2E-i	.	2G	-cel-	2c]	.	1g	.
1D	-sis,	1A	.	1d	.	.	.
*	*	*Xcol	*	*Xcol	*	*	*
.	.	.	.	.	.	2f#i	.
*	*	*	*Xedit	*Xlig	*	*	*Xedit
=131	=131	=131	=131	=131	=131	=131	=131
2.E-X	in	[1.Gl	-sis.	1B-y	-cel-	[1.gl	-sis.
4D	.	.	.	.	.	.	.
*lig	*	*	*	*	*	*	*
2C	ex-	.	.	2c	.	.	.
=132	=132	=132	=132	=132	=132	=132	=132
2BB-y	.	1.G_	.	2d	.	1.g_	.
*Xlig	*	*	*	*	*	*	*
1C	-cel-	.	.	2.e-X	.	.	.
.	.	.	.	8dL	.	.	.
.	.	.	.	8cJ	.	.	.
*	*Xedit	*	*	*	*Xedit	*	*
=133	=133	=133	=133	=133	=133	=133	=133
1GGl	-sis.	1G]	.	1dl	-sis.	1g]	.
==	==	==	==	==	==	==	==
*-	*-	*-	*-	*-	*-	*-	*-
!!!system-decoration: [*]
!!!RDF**kern: j = editorial accidental, optional, paren up
!!!RDF**kern: i = editorial accidental
!!!RDF**kern: l = terminal long
!!!PTL: Gaspar van Weerbeke: Collected Works. II. Masses, Part 2
!!!PPR: American Institute of Musicology
!!!PC#: Corpus Mensurabilis Musicae 106/II.2
!!!PDT: 2018
!!!PED: Kolb, Paul
!!!YEC: Copyright 2016, Kolb, Paul
!!!YEM: CC-BY-NC 4.0 (https://creativecommons.org/licenses/by-nc/4.0/legalcode)
!!!EED: Zybina, Karina
!!!EEV: 2021/12/01
!!!title: @{OPR} &mdash; @{OTL}
